X:1
T:McGinty's Meal and Ale
M:4/4
L:1/16
K:C
G3E \
| "C"C3C C3E G4 G3c | "F"A3G A3c "C"G3G E4 | "F"F3F F3F "C"E3E E3C | "D7"D3E D3C "G7"B,3D G3E |
| "C"C3C C3E G4 G3c | "F"A3G A3c "C"GG3 G3E | "F"F3F F3F "F"E4 G3E | "C"C3C "G7"D3B, "C"C4 G3G ||
%c3c c3c e4 d4 | c3c B3B A3A G3G | F4 F3F E4 E3C | D3E D3C B,3D E4 |
%C3C C3E G3G G3B | A3G A3c GG3 G3E | F3E F3F E4 G3E | C3C D3B, C4 G3G |
||"C"c3c c3c e3e d3d | c3c B3B A3A G3G | "F"F3F F3F "C"E4 E3C | "D7"D3E D3C "G7"B,4 D4 |
| "C"C3C C3E G3G G3c | "F"A3G A3c "C"G3G G3E | "F"F3E F3G "C"E4 G3E | "C"C3C "G7"D3B, "C"C4 |]
